X:3
T:Jenny's Chickens
R:reel
M:4/4
L:1/8
K:Ador %Transposed from Bdor
~e3d edBd|~e3c dGBd|~e3d edBd|e2ge dGBd:|
eAAG A2cd|eA~A2 dGBd|eAAG ABcd|e2ge dGBd|
eA~A2 aAgA|eA~A2 GABd|eAAG ABcd|e2ge dcBG|]
A2aA gAfA|~A2eA dcBG|A2aA gAfA|1 e2ge dcBG:|2 e2ge dGBd|]
